Newaita/actions/22/format-text-uppercase.svg

<?xml version="1.0" encoding="UTF-8"?>
<svg xmlns="http://www.w3.org/2000/svg" xmlns:xlink="http://www.w3.org/1999/xlink" width="22pt" height="22pt" viewBox="0 0 22 22" version="1.1">
<g id="surface1">
<path style=" stroke:none;fill-rule:nonzero;fill:rgb(25.882354%,25.882354%,25.882354%);fill-opacity:1;" d="M 6.367188 8.359375 C 4.351562 8.359375 2.730469 9.574219 2.730469 11.085938 L 2.730469 19.273438 L 4.546875 19.273438 L 4.546875 15.636719 L 8.1875 15.636719 L 8.1875 19.273438 L 10.003906 19.273438 L 10.003906 11.085938 C 10.003906 9.574219 8.382812 8.359375 6.367188 8.359375 Z M 6.367188 10.175781 C 7.375 10.175781 8.1875 10.582031 8.1875 11.085938 L 8.1875 13.816406 L 4.546875 13.816406 L 4.546875 11.085938 C 4.546875 10.582031 5.359375 10.175781 6.367188 10.175781 Z M 6.367188 10.175781 "/>
<path style=" stroke:none;fill-rule:nonzero;fill:rgb(25.882354%,25.882354%,25.882354%);fill-opacity:1;" d="M 11.824219 8.359375 L 11.824219 19.273438 L 15.007812 19.273438 C 17.277344 19.273438 19.101562 17.753906 19.101562 15.863281 L 19.101562 15.40625 C 19.101562 14.226562 18.386719 13.1875 17.296875 12.578125 C 17.574219 12.148438 17.738281 11.636719 17.738281 11.085938 C 17.738281 9.574219 16.519531 8.359375 15.007812 8.359375 Z M 13.644531 10.175781 L 15.007812 10.175781 C 15.511719 10.175781 15.917969 10.582031 15.917969 11.085938 C 15.917969 11.589844 15.511719 11.996094 15.007812 11.996094 L 13.644531 11.996094 Z M 13.644531 13.816406 L 15.007812 13.816406 C 16.269531 13.816406 17.28125 14.628906 17.28125 15.636719 C 17.28125 16.644531 16.269531 17.453125 15.007812 17.453125 L 13.644531 17.453125 Z M 13.644531 13.816406 "/>
<path style=" stroke:none;fill-rule:nonzero;fill:rgb(14.901961%,65.098041%,60.392159%);fill-opacity:1;" d="M 11.863281 6.625 C 11.855469 6.800781 11.921875 6.96875 12.042969 7.097656 C 12.164062 7.222656 12.332031 7.296875 12.507812 7.296875 L 17.964844 7.296875 C 18.199219 7.296875 18.414062 7.171875 18.527344 6.96875 C 18.640625 6.765625 18.636719 6.519531 18.519531 6.320312 L 15.789062 1.769531 C 15.671875 1.578125 15.464844 1.457031 15.238281 1.457031 C 15.011719 1.457031 14.800781 1.578125 14.683594 1.769531 L 11.957031 6.320312 C 11.898438 6.410156 11.867188 6.515625 11.863281 6.625 Z M 13.648438 6.007812 L 15.238281 3.355469 L 16.828125 6.007812 Z M 13.648438 6.007812 "/>
</g>
</svg>

<svg xmlns="http://www.w3.org/2000/svg" width="22pt" height="22pt" viewBox="0 0 22 22"><path d="M6.367 8.36c-2.015 0-3.637 1.214-3.637 2.726v8.187h1.817v-3.636h3.64v3.636h1.817v-8.187c0-1.512-1.621-2.727-3.637-2.727zm0 1.816c1.008 0 1.82.406 1.82.91v2.73h-3.64v-2.73c0-.504.812-.91 1.82-.91zm0 0M11.824 8.36v10.913h3.184c2.27 0 4.094-1.52 4.094-3.41v-.457c0-1.18-.715-2.219-1.805-2.828.277-.43.441-.941.441-1.492a2.722 2.722 0 0 0-2.73-2.727zm1.82 1.816h1.364c.504 0 .91.406.91.91s-.406.91-.91.91h-1.363zm0 3.64h1.364c1.262 0 2.273.813 2.273 1.82 0 1.009-1.011 1.817-2.273 1.817h-1.363zm0 0" fill="#78909c"/><path d="M12.734 3.8l2.73 2.727 2.727-2.726M15.465 6.074V1.766" fill="none" stroke-width="1.3728915" stroke-linecap="round" stroke-linejoin="round" stroke="#26a69a"/></svg>
